!!!!SEGMENT: pl-kk--kk-i-513--001-003_haser-august-ferdinand--miserere-amplius-lava-me.krn
!!!cenid: 17xx:1843
!!!COM: Häser, August Ferdinand
!!!COM-rismID: pe37240
!!!CDT: 1779/10/15-1844/11/01
!!!CNT: German
!!!OPR: Miserere
!!!OTL: Amplius lava me
!!!OMV: 003
!!!PDT:
!!!AGN: Sacred
!!!YEC: Copyright 2022 Narodowy Instytut Fryderyka Chopina (https://polishscores.org)
!!!YEM: License CC-BY-4.0 (https://creativecommons.org/licenses/by/4.0)
!!!SMS-siglum: PL-Kk
!!!SMS-shelfmark: Kk.I.513
!!!SMS-shelfwork: 001-003 M
!!!SMS-variant:
!!!SMS-altvar:
!!!NIFC-rismSourceID: 1001137722
!!!NIFC-rismChildID: 1001138468
!!!NIFC-islandoraID: pl-kk:14834
!!!URL-pdf-islandora: https://repozytorium.nifc.pl/islandora/object/pl-kk%3A14834/datastream/PDF/view
!!!URL-scan: https://polish.musicsources.pl/pl/lokalizacje/galeria/rekopisy/6123 @EN{Scan on Polish Music Sources Website} @PL{Skany w portalu Dziedzictwo Muzyki Polskiej w otwartym dostępie}
!!!IIIF:
!!!ONB-nifc:
!!!AIN: 1 alto 1 bass 1 empty 1 soprn 1 tenor
!!!key:
**kern	**kern	**kern	**text	**dynam	**kern	**text	**dynam	**kern	**text	**dynam	**kern	**text	**dynam
*part5	*part5	*part4	*	*	*part3	*	*	*part2	*	*	*part1	*	*
*staff6	*staff5	*staff4	*	*	*staff3	*	*	*staff2	*	*	*staff1	*	*
*Iempty	*Iorgan	*Ibass	*	*	*Itenor	*	*	*Ialto	*	*	*Isoprn	*	*
*	*I"[Organo]	*I"Basso.	*	*	*I"Tenore.	*	*	*I"Alto	*	*	*I"Soprano.	*	*
*	*I'[org]	*I'B	*	*	*I'T	*	*	*I'A	*	*	*I'S	*	*
*clefF4	*clefG2	*clefF4	*	*	*clefC4	*	*	*clefG2	*	*	*clefG2	*	*
*k[]	*k[]	*k[]	*	*	*k[]	*	*	*k[]	*	*	*k[]	*	*
*C:	*C:	*C:	*	*	*C:	*	*	*C:	*	*	*C:	*	*
*M4/4	*M4/4	*M4/4	*	*	*M4/4	*	*	*M4/4	*	*	*M4/4	*	*
*met(c)	*met(c)	*met(c)	*	*	*met(c)	*	*	*met(c)	*	*	*met(c)	*	*
=1	=1	=1	=1	=1	=1	=1	=1	=1	=1	=1	=1	=1	=1
*2\right	*2\right	*2\right	*	*	*2\right	*	*	*	*	*	*2\right	*	*
!LO:TX:t=P:problem=all\right&colon; global	!LO:TX:t=P:problem=all\right&colon; global	!LO:TX:t=P:problem=all\right&colon; global	!	!	!LO:TX:t=P:problem=all\right&colon; global	!	!	!	!	!	!LO:TX:t=P:problem=all\right&colon; global	!	!
!	!	!	!	!	!	!	!	!LO:TX:a:Bi:t=No. 3.:problem='No. 3.' znajduje się przed kluczem i oznaczeniem metrum na pięciolinii	!	!	!LO:TX:a:Bi:t=No. 3.:problem='No. 3.' znajduje się przed kluczem i oznaczeniem metrum na pięciolinii	!	!
!	!LO:TX:a:Bi:t=No 3&colon;:problem='No 3&colon;' znajduje się przed kluczem i oznaczeniem metrum	!LO:TX:a:Bi:t=No. 3.:problem='No. 3.' znajduje się przed kluczem i oznaczeniem metrum na pięciolinii	!	!	!LO:TX:a:Bi:t=No. 3.:problem='No. 3.' znajduje się przed kluczem i oznaczeniem metrum na pięciolinii	!	!	!	!	!	!	!	!
!	!	!	!	!	!	!	!	!LO:TX:a:Bi:t=Amplius:rj	!	!	!	!	!
!	!	!LO:TX:a:Bi:t=1	!	!	!LO:TX:a:Bi:t=1.	!	!	!LO:TX:a:Bi:t=1	!	!	!	!	!
1r	2r	1r	.	.	1r	.	.	1r	.	.	2r	.	.
!	!	!	!	!	!	!	!	!	!	!	!	!	!LO:DY:a:rj
.	2ee\	.	.	.	.	.	.	.	.	.	[>2ee\	Am-	f
=2	=2	=2	=2	=2	=2	=2	=2	=2	=2	=2	=2	=2	=2
!	!LO:SIC:n=2:s=2fn:v	!	!	!	!	!	!	!	!	!	!	!	!
!	!	!	!	!LO:DY:a:rj	!	!	!LO:DY:a:rj	!	!	!LO:DY:a:rj	!	!	!
2c 2A\	2ee 2f#X\	4.A\	Am-	f	4.c\	Am-	ff	4.fn/	Am-	ff	4.ee\]	.	.
.	.	8A\	-pli-	.	8c\	-pli-	.	8f/	-pli-	.	8ee\	-pli-	.
2f 2B\	2dd 2g\	2B\	-us	.	2f\	-us	.	2g/	-us	.	2dd\	-us	.
!LO:LB:g=original	!LO:LB:g=original	!	!	!	!	!	!	!	!	!	!	!	!
=3	=3	=3	=3	=3	=3	=3	=3	=3	=3	=3	=3	=3	=3
*^	*^	*	*	*	*	*	*	*	*	*	*	*	*
!	!	!	!	!	!	!	!	!	!	!	!	!LO:HP:a	!	!	!
2e/	2c\	4dd/	2g\	(>2c\	la-	.	(>1e	la-	.	(>2g/	la-	>	(>4dd\	la-	.
.	.	8cc/L	.	.	.	.	.	.	.	.	.	.	8cc\L	.	.
.	.	8b/J	.	.	.	.	.	.	.	.	.	.	8b\J	.	.
2e/	4A\	2cc/	2a\	4A\	.	.	.	.	.	[<2a/	.	.	2cc\	.	.
.	4G\	.	.	&(>4G\	.	.	.	.	.	.	.	.	.	.	.
*v	*v	*	*	*	*	*	*	*	*	*	*	*	*	*	*
=4	=4	=4	=4	=4	=4	=4	=4	=4	=4	=4	=4	=4	=4	=4
2d 2F\	4cc/	2a\	2F\&))	.	.	2d\)	.	.	2a/]	.	.	4cc/	.	.
.	8b/L	.	.	.	.	.	.	.	.	.	.	8b/L	.	.
.	8a/J	.	.	.	.	.	.	.	.	.	.	8a/J)	.	.
2G\	2b/	4g\	2G\	-va	.	2d\	-va	.	4g/)	.	.	2b/	-va	.
.	.	4f\	.	.	.	.	.	.	4f/	-va	.	.	.	.
=5	=5	=5	=5	=5	=5	=5	=5	=5	=5	=5	=5	=5	=5	=5
4c 4A\	[>4cc/	4e/	4A\	me	.	4c\	me	.	4e/	me	.	4cc\	me	.
!	!	!	!	!	!	!LO:TX:a:t=P:problem=w źródle nuta poprawiana przez skryptora	!	!	!	!	!	!	!	!
4e 4A\	4cc/]	2.a\	(>4A\	ab	.	(>4f\	ab	.	2a/	ab	.	(>4cc\	ab	.
4d 4F\	4dd/	.	4F\)	.	.	4d\)	.	.	.	.	.	4dd\)	.	.
4c#X 4E\	4ee/	.	4E\	in-	.	4c#X\	i-	.	4a/	i-	.	4ee\	in-	.
!	!	!	!	!	!	!	!	!	!	!	!	!LO:LB:g=original	!	!
=6	=6	=6	=6	=6	=6	=6	=6	=6	=6	=6	=6	=6	=6	=6
4d 4F\	4ff/	1a	4D\	-i-	.	4d\	-ni-	.	4a/	-ni-	.	4ff\	-ni-	.
4c#X 4E\	4ee/	.	4E\	-qui-	.	4c#X\	-qui-	.	4a/	-qui-	.	4ee\	-qui-	.
!	!	!	!LO:LB:g=original	!	!	!	!	!	!	!	!	!	!	!
4d 4F\	4dd/	.	4F\	-ta-	.	4d\	-ta-	.	4a/	-ta-	.	4dd\	-ta-	.
4d#X 4F#X\	4cc/	.	4F#X\	-te	.	4d#X\	-te	.	4a/	-tem	.	4cc\	-te	.
!	!	!	!	!	!	!LO:LB:g=original	!	!	!LO:LB:g=original	!	!	!	!	!
*	*v	*v	*	*	*	*	*	*	*	*	*	*	*	*
=7	=7	=7	=7	=7	=7	=7	=7	=7	=7	=7	=7	=7	=7
*	*	*^	*	*	*	*	*	*	*	*	*	*	*
2G\	2cc 2e/	2G\	2ryy	me-	.	2e\	me-	.	2g/	me-	.	2cc\	me-	.
2GG/	2b 2g 2fn/	2G/	2GG\	-a	.	2dn\	-a	.	2g/	-a	.	2b\	-a	.
*	*	*v	*v	*	*	*	*	*	*	*	*	*	*	*
=8	=8	=8	=8	=8	=8	=8	=8	=8	=8	=8	=8	=8	=8
*^	*^	*	*	*	*	*	*	*	*	*	*	*	*
!	!	!LO:TX:a:i:t=d	!	!	!	!	!	!	!	!	!	!	!	!	!
!	!	!	!	!	!	!LO:DY:a:rj	!	!	!LO:DY:a:rj	!	!	!LO:DY:a	!	!	!LO:DY:a:rj
2B/	2G\	1dd	2g\	2G\	et	p	2B\	et	pp	2g/	et	pp	2dd\	et	pp
4c\	4F#X\	.	4a\	4F#X\	a	.	4c\	a	.	4a/	a	.	4dd\	a	.
4B\	4Fn\	.	4g\	4Fn\	pec-	.	4B\	pec-	.	4g/	pec-	.	4dd\	pec-	.
=9	=9	=9	=9	=9	=9	=9	=9	=9	=9	=9	=9	=9	=9	=9	=9
!	!	!	!	!	!	!LO:DY:a:rj	!	!	!LO:HP:a	!	!	!	!	!	!
4c/	2E\	2.gg/	4g\	(>2E\	-ca-	pp	(>2.c\	-ca-	<	(>4g/	-ca-	.	(>2.gg\	-ca-	.
4F\	.	.	4b-X\	.	.	.	.	.	.	4b-X/	.	.	.	.	.
4ryy	4F\	.	2a\	4F\	.	.	.	.	.	2a/	.	.	.	.	.
4d\	4D\	4ff/	.	4D/	.	.	[>4d\	.	.	.	.	.	[>4ff\	.	.
!LO:LB:g=original	!	!LO:LB:g=original	!	!	!	!	!	!	!	!	!	!	!	!	!
=10	=10	=10	=10	=10	=10	=10	=10	=10	=10	=10	=10	=10	=10	=10	=10
4d/	4G\	4ff/	2g\	4BB/	.	.	4d\]	.	.	2g/	.	.	4ff\]	.	.
!	!	!	!	!	!	!	!	!	!LO:DY:a:rj	!	!	!	!	!	!LO:DY:a:rj
2c/	4C\	2ee/	.	4C/	.	.	2c\	.	f	.	.	.	2ee\	.	f
!	!	!	!	!	!	!LO:DY:a:rj	!	!	!	!	!	!	!	!	!
.	4A 4AA\	.	2f\	4AA/	.	ff	.	.	.	2f/	.	.	.	.	.
4B/	4BB\	4dd/	.	4BB/	.	.	[>4B\	.	.	.	.	.	[>4dd\	.	.
=11	=11	=11	=11	=11	=11	=11	=11	=11	=11	=11	=11	=11	=11	=11	=11
!	!	!	!	!	!	!LO:HP:a	!	!	!	!	!	!	!	!	!
4B/	4G#X\	4dd/	2.e\	4GG#X/	.	>	4B\]	.	.	2.e/)	.	.	4dd\]	.	.
4A\	4ryy	2cc/	.	4AA/	.	.	4A/)	.	.	.	.	.	2cc\)	.	.
!	!	!	!	!	!	!	!	!	!LO:HP:a	!	!	!	!	!	!
2G#X/	2E\	.	.	2E\)	-to	.	2G#X/	-to	>	.	.	.	.	.	.
.	.	4b/	4d\	.	.	.	.	.	.	4d/	-to	.	4b/	-to	.
!	!	!	!	!LO:LB:g=original	!	!	!	!	!	!	!	!	!LO:LB:g=original	!	!
*v	*v	*	*	*	*	*	*	*	*	*	*	*	*	*	*
=12	=12	=12	=12	=12	=12	=12	=12	=12	=12	=12	=12	=12	=12	=12
2.A 2.F\	4a/	2c\	2.F\	me-	.	2A/	me-	.	2c/	me-	.	(<4a/	me-	.
.	4b/	.	.	.	.	.	.	.	.	.	.	4b/)	.	.
.	4cc/	2a\	.	.	.	2A/	-o	.	2a/	-o	.	(<4cc/	-o	.
4A 4F#X\	4dd/	.	4F#X\	-o	.	.	.	.	.	.	.	4dd/)	.	.
!	!	!	!	!	!	!LO:LB:g=original	!	!	!	!	!	!	!	!
=13	=13	=13	=13	=13	=13	=13	=13	=13	=13	=13	=13	=13	=13	=13
*^	*	*	*	*	*	*	*	*	*	*	*	*	*	*
!	!	!	!	!	!	!	!	!	!	!	!	!	!LO:TX:a:t=P:problem=w źródle 'ff' po cresendo	!	!
!	!	!	!	!	!	!	!	!	!	!	!	!	!	!	!LO:DY:a
!	!	!	!	!	!	!	!	!	!LO:HP:b	!	!	!	!	!	!LO:HP:a
1c	2G\	1ee	1g	(<2G\	mun-	.	1c	mun-	<[	1g	mun-	.	1ee	mun-	<[ ff
.	4E\	.	.	4E/	.	.	.	.	.	.	.	.	.	.	.
.	4C\	.	.	4C/)	.	.	.	.	.	.	.	.	.	.	.
!	!	!	!	!	!	!	!	!	!	!LO:LB:g=original	!	!	!	!	!
=14	=14	=14	=14	=14	=14	=14	=14	=14	=14	=14	=14	=14	=14	=14	=14
!	!	!	!	!	!	!LO:DY:a:rj	!	!	!LO:DY:a:rj	!	!	!	!	!	!
2c/	1G	1dd	1g	1GG	-da	ff	2c\	[[da]]	ff	2g/	.	.	1dd	-da	.
!	!	!	!	!	!	!	!	!	!	!	!	!LO:DY:a:rj	!	!	!
4d/	.	.	.	.	.	.	(>4B\	-da	.	2g/	-da	ff	.	.	.
4f/	.	.	.	.	.	.	4f\)	.	.	.	.	.	.	.	.
*v	*v	*	*	*	*	*	*	*	*	*	*	*	*	*	*
=15	=15	=15	=15	=15	=15	=15	=15	=15	=15	=15	=15	=15	=15	=15
2G 2C/	2cc\	2e\	2C/	me.	.	2e\	me.	.	2g/	me.	.	2cc/	me.	.
!	!	!	!LO:TX:a:Bi:t=Kasper Molęcki	!	!	!LO:TX:a:Bi:t=Kasper Molęcki	!	!	!LO:TX:a:Bi:t=Kasper Molęcki	!	!	!LO:TX:a:Bi:t=Kasper Molęcki	!	!
2r	2r	2ryy	2r	.	.	2r	.	.	2r	.	.	2r	.	.
*	*v	*v	*	*	*	*	*	*	*	*	*	*	*	*
==	==	==	==	==	==	==	==	==	==	==	==	==	==
*-	*-	*-	*-	*-	*-	*-	*-	*-	*-	*-	*-	*-	*-
!!!system-decoration: [(s1,s2,s3,s4)]{(s5,s6)}
!!!RDF**kern: > = above
!!!RDF**kern: < = below
!!!RDF**dynam: < = "cres.", fontstyle="bold-italic"
!!!RDF**dynam: > = "dim", fontstyle= "bold-italic"
!!!EED: Wojciech Jakubiak-Danek
!!!EEV: 2021-01-02
!!!ENC: Tomasz Grochalski
!!!END: 2020-12-31
